X: 32616
T: Plausible, The
R: jig
M: 6/8
K: Adorian
|:EAA AGA|Bde ~g3|age dBG|BAB GED|
EAA AGA|Bde ~g3|age dBG|1 BAG A3:|2 BAG A2B||
|:~c3 ede|gag edB|GFG BAB|ege dBG|
~c3 ede|gag egd|Bcd eBd|1 cAG A3:|2 cAG Ace||
|:~a3 afa|ged efe|efg efg|~B3 GAB|
~c3 dcd|ede gab|age dBe|1 ABA Ace:|2 ABA A3||

